X:27
T:Vals efter Pelle Fors
R:vals
A:\"Osterg\"otland
Z:id:hn-vals-27
M:3/4
K:C
G2 | c3 B ce | g4 (3g^fg | ag ec cB | d3 B GA | Bc de fg | 
a2 a2 g^f | g z Bd c2 | c2 z2 :||: z2 | (3g^fg ag ec | cB d3 B |
GA Bc de | fa g^f g2 | (3g^fg ag ec | cB d3 B | GA Bc dB | c2 c2 :|
